X: 30
T: Wugen shapeng wangna luo
L: 1/16
M: 2/4
K: A
b2c'4c' f' [I:setbarnb 1]| 
b2> b2 a2 a f | 
f2 c2 z B/ B/ B e | 
c8 | 
b2c'4c' f' | 
b2> b2 a2 a f | 
f2 c2 z B/ B/ B e | 
f8 |]

@@@ Tune index: 8904
